public/assets/icons/strategy.svg

<svg fill="none" height="32" viewBox="0 0 33 32" width="33" xmlns="http://www.w3.org/2000/svg"><path d="m9.02775 19c-.89002 0-1.76005.2639-2.50007.7584s-1.3168 1.1973-1.65739 2.0195c-.3406.8223-.42971 1.7271-.25608 2.6.17364.8729.60222 1.6747 1.23156 2.3041.62933.6293 1.43116 1.0579 2.30407 1.2315.87292.1737 1.77772.0846 2.59996-.256.8223-.3406 1.5251-.9174 2.0196-1.6574.4944-.7401.7583-1.6101.7583-2.5001 0-1.1935-.4741-2.3381-1.318-3.182s-1.9885-1.318-3.18195-1.318zm0 7c-.49446 0-.97781-.1466-1.38893-.4213s-.73155-.6652-.92077-1.122-.23873-.9595-.14227-1.4444c.09647-.485.33457-.9304.6842-1.2801.34963-.3496.79509-.5877 1.28004-.6842.48495-.0964.98762-.0469 1.44444.1423.45684.1892.84724.5097 1.12194.9208s.4213.8944.4213 1.3889c0 .663-.2633 1.2989-.7322 1.7678-.4688.4688-1.10471.7322-1.76775.7322zm-4.2075-12.7075 1.79375-1.7925-1.79375-1.7925c-.18764-.18764-.29306-.44214-.29306-.7075s.10542-.51986.29306-.7075.44213-.29306.7075-.29306c.26536 0 .51986.10542.7075.29306l1.7925 1.7938 1.7925-1.7938c.18765-.18764.44215-.29306.70745-.29306.2654 0 .5199.10542.7075.29306.1877.18764.2931.44214.2931.7075s-.1054.51986-.2931.7075l-1.7937 1.7925 1.7937 1.7925c.1877.1876.2931.4421.2931.7075s-.1054.5199-.2931.7075c-.1876.1876-.4421.2931-.7075.2931-.2653 0-.5198-.1055-.70745-.2931l-1.7925-1.7938-1.7925 1.7938c-.18764.1876-.44214.2931-.7075.2931-.26537 0-.51986-.1055-.7075-.2931s-.29306-.4421-.29306-.7075.10542-.5199.29306-.7075zm23.41495 12c.093.0929.1667.2032.2169.3246.0503.1214.0762.2515.0762.3829s-.0259.2615-.0762.3829c-.0502.1214-.1239.2317-.2169.3246-.0929.0929-.2032.1666-.3246.2169-.1213.0503-.2515.0762-.3829.0762-.1313 0-.2615-.0259-.3828-.0762-.1214-.0503-.2317-.124-.3247-.2169l-1.7925-1.7938-1.7925 1.7938c-.1876.1876-.4421.2931-.7075.2931-.2653 0-.5198-.1055-.7075-.2931-.1876-.1876-.293-.4421-.293-.7075s.1054-.5199.293-.7075l1.7938-1.7925-1.7938-1.7925c-.1876-.1876-.293-.4421-.293-.7075s.1054-.5199.293-.7075c.1877-.1876.4422-.2931.7075-.2931.2654 0 .5199.1055.7075.2931l1.7925 1.7938 1.7925-1.7938c.1877-.1876.4422-.2931.7075-.2931.2654 0 .5199.1055.7075.2931.1877.1876.2931.4421.2931.7075s-.1054.5199-.2931.7075l-1.7937 1.7925zm-5.6487-11.1887c-.7725 2.7912-3.165 5.2037-5.8163 5.8662-.0817.0203-.1657.0304-.25.03-.2438-.0005-.4791-.09-.6615-.2518-.1825-.1617-.2995-.3846-.3292-.6266-.0296-.2421.0302-.4866.1682-.6876.138-.2011.3448-.3447.5813-.404 1.9537-.4887 3.7937-2.3638 4.375-4.46.3987-1.4375.4025-3.625-1.8388-5.8625l-.2875-.29375v2.58625c0 .2652-.1053.5196-.2928.7071-.1876.1875-.4419.2929-.7072.2929-.2652 0-.5195-.1054-.7071-.2929-.1875-.1875-.2929-.4419-.2929-.7071v-5c0-.26522.1054-.51957.2929-.70711.1876-.18753.4419-.29289.7071-.29289h5c.2653 0 .5196.10536.7072.29289.1875.18754.2928.44189.2928.70711s-.1053.51957-.2928.70711c-.1876.18753-.4419.29289-.7072.29289h-2.5862l.2937.2925c2.28 2.28125 3.115 5.055 2.3513 7.8113z" fill="#fff"/></svg>

<svg width="33" height="32" viewBox="0 0 33 32" fill="none" xmlns="http://www.w3.org/2000/svg">
<path d="M9.02775 19C8.13773 19 7.2677 19.2639 6.52768 19.7584C5.78766 20.2529 5.21088 20.9557 4.87029 21.7779C4.52969 22.6002 4.44058 23.505 4.61421 24.3779C4.78785 25.2508 5.21643 26.0526 5.84577 26.682C6.4751 27.3113 7.27693 27.7399 8.14984 27.9135C9.02276 28.0872 9.92756 27.9981 10.7498 27.6575C11.5721 27.3169 12.2749 26.7401 12.7694 26.0001C13.2638 25.26 13.5277 24.39 13.5277 23.5C13.5277 22.3065 13.0536 21.1619 12.2097 20.318C11.3658 19.4741 10.2212 19 9.02775 19ZM9.02775 26C8.53329 26 8.04994 25.8534 7.63882 25.5787C7.2277 25.304 6.90727 24.9135 6.71805 24.4567C6.52883 23.9999 6.47932 23.4972 6.57578 23.0123C6.67225 22.5273 6.91035 22.0819 7.25998 21.7322C7.60961 21.3826 8.05507 21.1445 8.54002 21.048C9.02497 20.9516 9.52764 21.0011 9.98446 21.1903C10.4413 21.3795 10.8317 21.7 11.1064 22.1111C11.3811 22.5222 11.5277 23.0055 11.5277 23.5C11.5277 24.163 11.2644 24.7989 10.7955 25.2678C10.3267 25.7366 9.69079 26 9.02775 26ZM4.82025 13.2925L6.614 11.5L4.82025 9.7075C4.63261 9.51986 4.52719 9.26536 4.52719 9C4.52719 8.73464 4.63261 8.48014 4.82025 8.2925C5.00789 8.10486 5.26238 7.99944 5.52775 7.99944C5.79311 7.99944 6.04761 8.10486 6.23525 8.2925L8.02775 10.0863L9.82025 8.2925C10.0079 8.10486 10.2624 7.99944 10.5277 7.99944C10.7931 7.99944 11.0476 8.10486 11.2352 8.2925C11.4229 8.48014 11.5283 8.73464 11.5283 9C11.5283 9.26536 11.4229 9.51986 11.2352 9.7075L9.4415 11.5L11.2352 13.2925C11.4229 13.4801 11.5283 13.7346 11.5283 14C11.5283 14.2654 11.4229 14.5199 11.2352 14.7075C11.0476 14.8951 10.7931 15.0006 10.5277 15.0006C10.2624 15.0006 10.0079 14.8951 9.82025 14.7075L8.02775 12.9137L6.23525 14.7075C6.04761 14.8951 5.79311 15.0006 5.52775 15.0006C5.26238 15.0006 5.00789 14.8951 4.82025 14.7075C4.63261 14.5199 4.52719 14.2654 4.52719 14C4.52719 13.7346 4.63261 13.4801 4.82025 13.2925ZM28.2352 25.2925C28.3282 25.3854 28.4019 25.4957 28.4521 25.6171C28.5024 25.7385 28.5283 25.8686 28.5283 26C28.5283 26.1314 28.5024 26.2615 28.4521 26.3829C28.4019 26.5043 28.3282 26.6146 28.2352 26.7075C28.1423 26.8004 28.032 26.8741 27.9106 26.9244C27.7893 26.9747 27.6591 27.0006 27.5277 27.0006C27.3964 27.0006 27.2662 26.9747 27.1449 26.9244C27.0235 26.8741 26.9132 26.8004 26.8202 26.7075L25.0277 24.9137L23.2352 26.7075C23.0476 26.8951 22.7931 27.0006 22.5277 27.0006C22.2624 27.0006 22.0079 26.8951 21.8202 26.7075C21.6326 26.5199 21.5272 26.2654 21.5272 26C21.5272 25.7346 21.6326 25.4801 21.8202 25.2925L23.614 23.5L21.8202 21.7075C21.6326 21.5199 21.5272 21.2654 21.5272 21C21.5272 20.7346 21.6326 20.4801 21.8202 20.2925C22.0079 20.1049 22.2624 19.9994 22.5277 19.9994C22.7931 19.9994 23.0476 20.1049 23.2352 20.2925L25.0277 22.0863L26.8202 20.2925C27.0079 20.1049 27.2624 19.9994 27.5277 19.9994C27.7931 19.9994 28.0476 20.1049 28.2352 20.2925C28.4229 20.4801 28.5283 20.7346 28.5283 21C28.5283 21.2654 28.4229 21.5199 28.2352 21.7075L26.4415 23.5L28.2352 25.2925ZM22.5865 14.1038C21.814 16.895 19.4215 19.3075 16.7702 19.97C16.6885 19.9903 16.6045 20.0004 16.5202 20C16.2764 19.9995 16.0411 19.91 15.8587 19.7482C15.6762 19.5865 15.5592 19.3636 15.5295 19.1216C15.4999 18.8795 15.5597 18.635 15.6977 18.434C15.8357 18.2329 16.0425 18.0893 16.279 18.03C18.2327 17.5413 20.0727 15.6662 20.654 13.57C21.0527 12.1325 21.0565 9.945 18.8152 7.7075L18.5277 7.41375V10C18.5277 10.2652 18.4224 10.5196 18.2349 10.7071C18.0473 10.8946 17.793 11 17.5277 11C17.2625 11 17.0082 10.8946 16.8206 10.7071C16.6331 10.5196 16.5277 10.2652 16.5277 10V5C16.5277 4.73478 16.6331 4.48043 16.8206 4.29289C17.0082 4.10536 17.2625 4 17.5277 4H22.5277C22.793 4 23.0473 4.10536 23.2349 4.29289C23.4224 4.48043 23.5277 4.73478 23.5277 5C23.5277 5.26522 23.4224 5.51957 23.2349 5.70711C23.0473 5.89464 22.793 6 22.5277 6H19.9415L20.2352 6.2925C22.5152 8.57375 23.3502 11.3475 22.5865 14.1038Z" fill="white"/>
</svg>
